source/images/content/hexagonal_dipyramid.svg

<?xml version="1.0" encoding="UTF-8"?>
<svg xmlns="http://www.w3.org/2000/svg" xmlns:xlink="http://www.w3.org/1999/xlink" width="126pt" height="199.94pt" viewBox="0 0 126 199.94" version="1.2">
<g id="surface1">
<path style=" stroke:none;fill-rule:nonzero;fill:rgb(29.393005%,5.200195%,36.59668%);fill-opacity:1;" d="M 67.125 4.441406 L 114.726562 88.898438 L 84.21875 82.316406 "/>
<path style="fill:none;stroke-width:5;stroke-linecap:round;stroke-linejoin:round;stroke:rgb(0%,0%,0%);stroke-opacity:1;stroke-miterlimit:10;" d="M 671.262379 1954.972609 L 1147.420851 1110.14885 L 842.251175 1175.988914 Z M 671.262379 1954.972609 " transform="matrix(0.09997,0,0,-0.09997,0.0189,199.880018)"/>
<path style=" stroke:none;fill-rule:nonzero;fill:rgb(39.988708%,42.405701%,76.951599%);fill-opacity:1;" d="M 67.125 170.058594 L 114.726562 88.898438 L 84.21875 82.316406 "/>
<path style="fill:none;stroke-width:5;stroke-linecap:round;stroke-linejoin:round;stroke:rgb(0%,0%,0%);stroke-opacity:1;stroke-miterlimit:10;" d="M 671.262379 298.303734 L 1147.420851 1110.14885 L 842.251175 1175.988914 Z M 671.262379 298.303734 " transform="matrix(0.09997,0,0,-0.09997,0.0189,199.880018)"/>
<path style=" stroke:none;fill-rule:nonzero;fill:rgb(71.679688%,43.797302%,50.193787%);fill-opacity:1;" d="M 67.125 4.441406 L 84.21875 82.316406 L 39.8125 83.3125 "/>
<path style="fill:none;stroke-width:5;stroke-linecap:round;stroke-linejoin:round;stroke:rgb(0%,0%,0%);stroke-opacity:1;stroke-miterlimit:10;" d="M 671.262379 1954.972609 L 842.251175 1175.988914 L 398.055417 1166.024987 Z M 671.262379 1954.972609 " transform="matrix(0.09997,0,0,-0.09997,0.0189,199.880018)"/>
<path style=" stroke:none;fill-rule:nonzero;fill:rgb(73.242188%,65.429688%,77.34375%);fill-opacity:1;" d="M 67.125 170.058594 L 84.21875 82.316406 L 39.8125 83.3125 "/>
<path style="fill:none;stroke-width:5;stroke-linecap:round;stroke-linejoin:round;stroke:rgb(0%,0%,0%);stroke-opacity:1;stroke-miterlimit:10;" d="M 671.262379 298.303734 L 842.251175 1175.988914 L 398.055417 1166.024987 Z M 671.262379 298.303734 " transform="matrix(0.09997,0,0,-0.09997,0.0189,199.880018)"/>
<path style=" stroke:none;fill-rule:nonzero;fill:rgb(92.1875%,53.125%,20.506287%);fill-opacity:1;" d="M 67.125 4.441406 L 39.8125 83.3125 L 18.257812 91.257812 "/>
<path style="fill:none;stroke-width:5;stroke-linecap:round;stroke-linejoin:round;stroke:rgb(0%,0%,0%);stroke-opacity:1;stroke-miterlimit:10;" d="M 671.262379 1954.972609 L 398.055417 1166.024987 L 182.443858 1086.548019 Z M 671.262379 1954.972609 " transform="matrix(0.09997,0,0,-0.09997,0.0189,199.880018)"/>
<path style=" stroke:none;fill-rule:nonzero;fill:rgb(94.726562%,90.625%,74.804688%);fill-opacity:1;" d="M 67.125 170.058594 L 39.8125 83.3125 L 18.257812 91.257812 "/>
<path style="fill:none;stroke-width:5;stroke-linecap:round;stroke-linejoin:round;stroke:rgb(0%,0%,0%);stroke-opacity:1;stroke-miterlimit:10;" d="M 671.262379 298.303734 L 398.055417 1166.024987 L 182.443858 1086.548019 Z M 671.262379 298.303734 " transform="matrix(0.09997,0,0,-0.09997,0.0189,199.880018)"/>
<path style=" stroke:none;fill-rule:nonzero;fill:rgb(84.764099%,41.992188%,0%);fill-opacity:1;" d="M 67.125 170.058594 L 114.726562 88.898438 L 99.25 98.003906 "/>
<path style="fill:none;stroke-width:5;stroke-linecap:round;stroke-linejoin:round;stroke:rgb(0%,0%,0%);stroke-opacity:1;stroke-miterlimit:10;" d="M 671.262379 298.303734 L 1147.420851 1110.14885 L 992.608783 1019.066838 Z M 671.262379 298.303734 " transform="matrix(0.09997,0,0,-0.09997,0.0189,199.880018)"/>
<path style=" stroke:none;fill-rule:nonzero;fill:rgb(71.289062%,40.405273%,45.410156%);fill-opacity:1;" d="M 67.125 170.058594 L 46.476562 99.421875 L 99.25 98.003906 "/>
<path style="fill:none;stroke-width:5;stroke-linecap:round;stroke-linejoin:round;stroke:rgb(0%,0%,0%);stroke-opacity:1;stroke-miterlimit:10;" d="M 671.262379 298.303734 L 464.71604 1004.882895 L 992.608783 1019.066838 Z M 671.262379 298.303734 " transform="matrix(0.09997,0,0,-0.09997,0.0189,199.880018)"/>
<path style=" stroke:none;fill-rule:nonzero;fill:rgb(20.188904%,5.999756%,29.197693%);fill-opacity:1;" d="M 67.125 170.058594 L 18.257812 91.257812 L 46.476562 99.421875 "/>
<path style="fill:none;stroke-width:5;stroke-linecap:round;stroke-linejoin:round;stroke:rgb(0%,0%,0%);stroke-opacity:1;stroke-miterlimit:10;" d="M 671.262379 298.303734 L 182.443858 1086.548019 L 464.71604 1004.882895 Z M 671.262379 298.303734 " transform="matrix(0.09997,0,0,-0.09997,0.0189,199.880018)"/>
<path style=" stroke:none;fill-rule:nonzero;fill:rgb(95.506287%,94.921875%,70.506287%);fill-opacity:1;" d="M 67.125 4.441406 L 114.726562 88.898438 L 99.25 98.003906 "/>
<path style="fill:none;stroke-width:5;stroke-linecap:round;stroke-linejoin:round;stroke:rgb(0%,0%,0%);stroke-opacity:1;stroke-miterlimit:10;" d="M 671.262379 1954.972609 L 1147.420851 1110.14885 L 992.608783 1019.066838 Z M 671.262379 1954.972609 " transform="matrix(0.09997,0,0,-0.09997,0.0189,199.880018)"/>
<path style=" stroke:none;fill-rule:nonzero;fill:rgb(31.005859%,37.205505%,76.5625%);fill-opacity:1;" d="M 67.125 4.441406 L 18.257812 91.257812 L 46.476562 99.421875 "/>
<path style="fill:none;stroke-width:5;stroke-linecap:round;stroke-linejoin:round;stroke:rgb(0%,0%,0%);stroke-opacity:1;stroke-miterlimit:10;" d="M 671.262379 1954.972609 L 182.443858 1086.548019 L 464.71604 1004.882895 Z M 671.262379 1954.972609 " transform="matrix(0.09997,0,0,-0.09997,0.0189,199.880018)"/>
<path style=" stroke:none;fill-rule:nonzero;fill:rgb(73.631287%,66.796875%,78.318787%);fill-opacity:1;" d="M 67.125 4.441406 L 46.476562 99.421875 L 99.25 98.003906 "/>
<path style="fill:none;stroke-width:5;stroke-linecap:round;stroke-linejoin:round;stroke:rgb(0%,0%,0%);stroke-opacity:1;stroke-miterlimit:10;" d="M 671.262379 1954.972609 L 464.71604 1004.882895 L 992.608783 1019.066838 Z M 671.262379 1954.972609 " transform="matrix(0.09997,0,0,-0.09997,0.0189,199.880018)"/>
</g>
</svg>

<svg xmlns="http://www.w3.org/2000/svg" width="168" height="266.587" viewBox="0 0 126 199.94" version="1.2"><path style="stroke:none;fill-rule:nonzero;fill:#4b0d5d;fill-opacity:1" d="m67.125 4.441 47.602 84.457-30.508-6.582"/><path style="fill:none;stroke-width:5;stroke-linecap:round;stroke-linejoin:round;stroke:#000;stroke-opacity:1;stroke-miterlimit:10" d="m671.262 1954.973 476.159-844.824-305.17 65.84Zm0 0" transform="matrix(.09997 0 0 -.09997 .019 199.88)"/><path style="stroke:none;fill-rule:nonzero;fill:#666cc4;fill-opacity:1" d="m67.125 170.059 47.602-81.16-30.508-6.583"/><path style="fill:none;stroke-width:5;stroke-linecap:round;stroke-linejoin:round;stroke:#000;stroke-opacity:1;stroke-miterlimit:10" d="m671.262 298.304 476.159 811.845-305.17 65.84Zm0 0" transform="matrix(.09997 0 0 -.09997 .019 199.88)"/><path style="stroke:none;fill-rule:nonzero;fill:#b77080;fill-opacity:1" d="m67.125 4.441 17.094 77.875-44.406.996"/><path style="fill:none;stroke-width:5;stroke-linecap:round;stroke-linejoin:round;stroke:#000;stroke-opacity:1;stroke-miterlimit:10" d="m671.262 1954.973 170.99-778.984-444.197-9.964Zm0 0" transform="matrix(.09997 0 0 -.09997 .019 199.88)"/><path style="stroke:none;fill-rule:nonzero;fill:#bba7c5;fill-opacity:1" d="m67.125 170.059 17.094-87.743-44.406.996"/><path style="fill:none;stroke-width:5;stroke-linecap:round;stroke-linejoin:round;stroke:#000;stroke-opacity:1;stroke-miterlimit:10" d="m671.262 298.304 170.99 877.685-444.197-9.964Zm0 0" transform="matrix(.09997 0 0 -.09997 .019 199.88)"/><path style="stroke:none;fill-rule:nonzero;fill:#eb8734;fill-opacity:1" d="M67.125 4.441 39.812 83.312l-21.554 7.946"/><path style="fill:none;stroke-width:5;stroke-linecap:round;stroke-linejoin:round;stroke:#000;stroke-opacity:1;stroke-miterlimit:10" d="m671.262 1954.973-273.207-788.948-215.611-79.477Zm0 0" transform="matrix(.09997 0 0 -.09997 .019 199.88)"/><path style="stroke:none;fill-rule:nonzero;fill:#f2e7bf;fill-opacity:1" d="M67.125 170.059 39.812 83.313l-21.554 7.945"/><path style="fill:none;stroke-width:5;stroke-linecap:round;stroke-linejoin:round;stroke:#000;stroke-opacity:1;stroke-miterlimit:10" d="m671.262 298.304-273.207 867.721-215.611-79.477Zm0 0" transform="matrix(.09997 0 0 -.09997 .019 199.88)"/><path style="stroke:none;fill-rule:nonzero;fill:#d86b00;fill-opacity:1" d="m67.125 170.059 47.602-81.16-15.477 9.105"/><path style="fill:none;stroke-width:5;stroke-linecap:round;stroke-linejoin:round;stroke:#000;stroke-opacity:1;stroke-miterlimit:10" d="m671.262 298.304 476.159 811.845-154.812-91.082Zm0 0" transform="matrix(.09997 0 0 -.09997 .019 199.88)"/><path style="stroke:none;fill-rule:nonzero;fill:#b66774;fill-opacity:1" d="M67.125 170.059 46.477 99.422l52.773-1.418"/><path style="fill:none;stroke-width:5;stroke-linecap:round;stroke-linejoin:round;stroke:#000;stroke-opacity:1;stroke-miterlimit:10" d="m671.262 298.304-206.546 706.579 527.893 14.184Zm0 0" transform="matrix(.09997 0 0 -.09997 .019 199.88)"/><path style="stroke:none;fill-rule:nonzero;fill:#330f4a;fill-opacity:1" d="M67.125 170.059 18.258 91.258l28.219 8.164"/><path style="fill:none;stroke-width:5;stroke-linecap:round;stroke-linejoin:round;stroke:#000;stroke-opacity:1;stroke-miterlimit:10" d="m671.262 298.304-488.818 788.244 282.272-81.665Zm0 0" transform="matrix(.09997 0 0 -.09997 .019 199.88)"/><path style="stroke:none;fill-rule:nonzero;fill:#f4f2b4;fill-opacity:1" d="m67.125 4.441 47.602 84.457-15.477 9.106"/><path style="fill:none;stroke-width:5;stroke-linecap:round;stroke-linejoin:round;stroke:#000;stroke-opacity:1;stroke-miterlimit:10" d="m671.262 1954.973 476.159-844.824-154.812-91.082Zm0 0" transform="matrix(.09997 0 0 -.09997 .019 199.88)"/><path style="stroke:none;fill-rule:nonzero;fill:#4f5fc3;fill-opacity:1" d="M67.125 4.441 18.258 91.258l28.219 8.164"/><path style="fill:none;stroke-width:5;stroke-linecap:round;stroke-linejoin:round;stroke:#000;stroke-opacity:1;stroke-miterlimit:10" d="m671.262 1954.973-488.818-868.425 282.272-81.665Zm0 0" transform="matrix(.09997 0 0 -.09997 .019 199.88)"/><path style="stroke:none;fill-rule:nonzero;fill:#bcaac8;fill-opacity:1" d="m67.125 4.441-20.648 94.98 52.773-1.417"/><path style="fill:none;stroke-width:5;stroke-linecap:round;stroke-linejoin:round;stroke:#000;stroke-opacity:1;stroke-miterlimit:10" d="m671.262 1954.973-206.546-950.09 527.893 14.184Zm0 0" transform="matrix(.09997 0 0 -.09997 .019 199.88)"/></svg>
